Papirus/24x24/animations/nm-vpn-connecting01.svg

<?xml version="1.0" encoding="UTF-8" standalone="no"?>
<svg xmlns="http://www.w3.org/2000/svg" version="1.1" width="24" height="24">
 <defs>
  <linearGradient y2="5" x2="19" gradientTransform="matrix(0,-1,-1,0,24,24)" y1="12" gradientUnits="userSpaceOnUse" x1="7" id="linearGradient3605">
   <stop offset="0" stop-opacity=".5" stop-color="#d3dae3"/>
   <stop offset="1" stop-opacity="0" stop-color="#d3dae3"/>
  </linearGradient>
  <linearGradient y2="12" x2="17" gradientTransform="matrix(0,1,1,0,0,0)" y1="12" gradientUnits="userSpaceOnUse" x1="7" id="linearGradient3611">
   <stop offset="0" stop-color="#d3dae3"/>
   <stop offset="1" stop-color="#d3dae3" stop-opacity=".5"/>
  </linearGradient>
 </defs>
 <path d="M 12 5 C 8.134 5 5 8.134 5 12 C 5 15.866 8.134 19 12 19 L 12 17 C 9.2386 17 7 14.761 7 12 C 7 9.2386 9.2386 7 12 7 C 13.3 7 13.3 5 12 5 z" style="fill:url(#linearGradient3611)"/>
 <path d="M 12 5 L 12 7 C 14.761 7 17 9.2386 17 12 C 17.753524 12 18.431103 12.295575 18.955078 12.763672 C 18.982861 12.512588 19 12.25905 19 12 C 19 8.134 15.866 5 12 5 z M 13 16.871094 C 12.676492 16.944588 12.346036 17 12 17 L 12 19 C 12.341233 19 12.672761 18.966399 13 18.917969 L 13 16.871094 z" style="fill:url(#linearGradient3605)"/>
 <path fill="#d3dae3" d="m17 13c-1.108 0-2 .91085-2 2.0312v.96875h-1v4h6v-4h-1v-.96875c0-1.12-.892-2.031-2-2.031zm0 1c.554 0 1 .4424 1 1v1h-2v-1c0-.5576.446-1 1-1z"/>
</svg>

<?xml version="1.0" encoding="UTF-8" standalone="no"?>
<svg width="24" xmlns="http://www.w3.org/2000/svg" version="1.1" height="24">
 <defs>
  <linearGradient id="linearGradient3605" y2="5" gradientUnits="userSpaceOnUse" y1="12" gradientTransform="matrix(0,-1,-1,0,24,24)" x2="19" x1="7">
   <stop stop-opacity=".5" stop-color="#d3dae3" offset="0"/>
   <stop stop-opacity="0" stop-color="#d3dae3" offset="1"/>
  </linearGradient>
  <linearGradient id="linearGradient3611" y2="12" gradientUnits="userSpaceOnUse" y1="12" gradientTransform="matrix(0,1,1,0,0,0)" x2="17" x1="7">
   <stop stop-color="#d3dae3" offset="0"/>
   <stop stop-color="#d3dae3" stop-opacity=".5" offset="1"/>
  </linearGradient>
 </defs>
 <path style="fill:url(#linearGradient3611)" d="m12 5c-3.866 0-7 3.134-7 7s3.134 7 7 7v-2c-2.7614 0-5-2.239-5-5 0-2.7614 2.2386-5 5-5 1.3 0 1.3-2 0-2z"/>
 <path style="fill:url(#linearGradient3605)" d="m12 5v2c2.761 0 5 2.2386 5 5 0.754 0 1.431 0.296 1.955 0.764 0.028-0.251 0.045-0.505 0.045-0.764 0-3.866-3.134-7-7-7zm1 11.871c-0.324 0.074-0.654 0.129-1 0.129v2c0.341 0 0.673-0.034 1-0.082v-2.047z"/>
 <path d="m17 13c-1.108 0-2 0.91085-2 2.0312v0.96875h-1v4h6v-4h-1v-0.96875c0-1.12-0.892-2.031-2-2.031zm0 1c0.554 0 1 0.4424 1 1v1h-2v-1c0-0.5576 0.446-1 1-1z" fill="#d3dae3"/>
</svg>
